src/assets/img/timer.svg

<svg width="50" height="57" viewBox="0 0 50 57" fill="none" xmlns="http://www.w3.org/2000/svg">
<path d="M28.7507 8.91442V6.34582H31.1442C31.6112 6.34582 32.0199 5.93718 32.0199 5.47017V1.26701C32.0199 0.799997 31.6112 0.391357 31.1442 0.391357H20.9282C20.4612 0.391357 20.0525 0.799997 20.0525 1.26701V5.47017C20.0525 5.93718 20.4612 6.34582 20.9282 6.34582H23.3217V8.91442C17.6591 9.55657 12.6386 12.1835 8.84413 16.0364L7.85172 15.044L9.48628 13.4095C9.83654 13.0592 9.83654 12.5338 9.48628 12.1835L6.10041 8.79766C5.75015 8.4474 5.22475 8.4474 4.87449 8.79766L0.262697 13.2927C-0.0875657 13.643 -0.0875657 14.1684 0.262697 14.5186L3.64857 17.9045C3.8237 18.0796 4.05721 18.138 4.29072 18.138C4.52423 18.138 4.75773 18.0796 4.93287 17.9045L6.6258 16.2116L7.73497 17.3207C4.23234 21.4655 2.13076 26.8362 2.13076 32.6739C2.13076 45.8671 12.8722 56.6085 26.0654 56.6085C39.2586 56.6085 50 45.8671 50 32.6739C49.9416 20.4147 40.6597 10.2571 28.7507 8.91442ZM4.29072 16.0948L2.13076 13.8765L5.39988 10.6074L7.55984 12.7673L6.27554 14.0516C6.10041 14.2267 5.8669 14.4602 5.63339 14.6938L4.29072 16.0948ZM24.1973 4.59451H21.8039V2.14267H30.2685V4.59451H27.8751C27.4081 4.59451 26.9994 5.00315 26.9994 5.47017V8.79766C26.7075 8.79766 26.3573 8.79766 26.0654 8.79766C25.7735 8.79766 25.4232 8.79766 25.1314 8.79766V5.47017C25.073 4.94477 24.6643 4.59451 24.1973 4.59451ZM26.007 54.8572C13.8062 54.8572 3.8237 44.9331 3.8237 32.6739C3.8237 20.4147 13.7478 10.4906 26.007 10.4906C26.474 10.4906 26.941 10.4906 27.4081 10.549C27.6416 10.549 27.8751 10.6074 28.1086 10.6074C39.3754 11.6581 48.1903 21.1736 48.1903 32.6739C48.1903 44.9331 38.2662 54.8572 26.007 54.8572Z" fill="#12C296"/>
<path d="M38.6165 18.313C38.5581 18.2546 38.4997 18.1963 38.4413 18.1379C35.1138 15.2774 30.7939 13.5845 26.0654 13.5845C15.4991 13.5845 6.97607 22.1659 6.97607 32.6738C6.97607 43.1817 15.4991 51.8215 26.007 51.8215C36.5149 51.8215 45.0963 43.24 45.0963 32.7322C45.1547 26.9528 42.5861 21.8156 38.6165 18.313ZM26.007 50.0702C16.4332 50.0702 8.66901 42.306 8.66901 32.7322C8.66901 23.1583 16.4332 15.3942 26.007 15.3942C30.035 15.3942 33.7128 16.7952 36.6316 19.0719L27.1746 29.9301C26.8243 29.8133 26.4157 29.6966 26.0654 29.6966C24.4308 29.6966 23.0882 31.0392 23.0882 32.6738C23.0882 34.3083 24.4308 35.651 26.0654 35.651C27.7 35.651 28.9842 34.3083 28.9842 32.6738C28.9842 32.09 28.8091 31.5062 28.5172 31.0392L38.0327 20.1227C41.3602 23.2751 43.4034 27.7117 43.4034 32.6738C43.4034 42.2476 35.5809 50.0702 26.007 50.0702ZM27.2329 32.6738C27.2329 33.3743 26.7075 33.8997 26.007 33.8997C25.3065 33.8997 24.7811 33.3743 24.7811 32.6738C24.7811 32.0316 25.3065 31.4479 26.007 31.4479C26.7075 31.4479 27.2329 32.0316 27.2329 32.6738Z" fill="#12C296"/>
</svg>

<svg xmlns="http://www.w3.org/2000/svg" width="50" height="57" fill="none"><path fill="#12C296" d="M28.75 8.914V6.346h2.394a.898.898 0 0 0 .876-.876V1.267a.898.898 0 0 0-.876-.876H20.928a.898.898 0 0 0-.876.876V5.47c0 .467.41.876.876.876h2.394v2.568c-5.663.643-10.683 3.27-14.478 7.122l-.992-.992 1.634-1.635a.847.847 0 0 0 0-1.226L6.1 8.799a.846.846 0 0 0-1.226 0L.263 13.293a.846.846 0 0 0 0 1.226l3.386 3.385c.175.176.408.234.642.234.233 0 .467-.058.642-.234l1.693-1.692 1.109 1.109a23.723 23.723 0 0 0-5.604 15.353c0 13.193 10.741 23.934 23.934 23.934C39.26 56.608 50 45.868 50 32.674c-.058-12.26-9.34-22.417-21.25-23.76Zm-24.46 7.18-2.16-2.218 3.27-3.269 2.16 2.16-1.284 1.285-.643.642-1.342 1.4Zm19.907-11.5h-2.393V2.144h8.465v2.452h-2.394A.898.898 0 0 0 27 5.47v3.328h-1.868V5.47c-.058-.525-.467-.875-.934-.875Zm1.81 50.263c-12.2 0-22.183-9.924-22.183-22.183 0-12.26 9.924-22.183 22.183-22.183.467 0 .934 0 1.401.058.234 0 .467.058.7.058C39.376 11.658 48.19 21.174 48.19 32.674c0 12.26-9.924 22.183-22.183 22.183Z"/><path fill="#12C296" d="m38.617 18.313-.176-.175c-3.327-2.86-7.647-4.554-12.376-4.554-10.566 0-19.089 8.582-19.089 19.09S15.5 51.822 26.007 51.822s19.09-8.582 19.09-19.09c.058-5.78-2.51-10.916-6.48-14.419ZM26.007 50.07c-9.574 0-17.338-7.764-17.338-17.338 0-9.574 7.764-17.338 17.338-17.338 4.028 0 7.706 1.401 10.625 3.678L27.175 29.93c-.35-.117-.76-.233-1.11-.233a2.99 2.99 0 0 0-2.977 2.977 2.99 2.99 0 0 0 2.977 2.977c1.635 0 2.92-1.343 2.92-2.977 0-.584-.176-1.168-.468-1.635l9.516-10.916c3.327 3.152 5.37 7.589 5.37 12.55 0 9.575-7.822 17.397-17.396 17.397Zm1.226-17.396c0 .7-.526 1.226-1.226 1.226s-1.226-.526-1.226-1.226c0-.642.526-1.226 1.226-1.226s1.226.584 1.226 1.226Z"/></svg>
